dist/assets/svg/facebook.svg

<?xml version="1.0" encoding="UTF-8"?>
<svg width="52px" height="53px" viewBox="0 0 52 53" version="1.1" xmlns="http://www.w3.org/2000/svg" xmlns:xlink="http://www.w3.org/1999/xlink">
    <!-- Generator: Sketch 42 (36781) - http://www.bohemiancoding.com/sketch -->
    <title>facebook</title>
    <desc>Created with Sketch.</desc>
    <defs></defs>
    <g id="Page-1" stroke="none" stroke-width="1" fill="none" fill-rule="evenodd">
        <g id="Clima" transform="translate(-725.000000, -6338.000000)">
            <g id="background4" transform="translate(-127.000000, 4906.000000)">
                <g id="facebook" transform="translate(853.000000, 1433.000000)">
                    <circle id="Oval" stroke="#FFFFFF" stroke-width="2" cx="25" cy="25.7753922" r="25"></circle>
                    <path d="M32.6665718,17.2153491 L27.9055481,17.2153491 C27.3427652,17.2153491 26.7142247,17.955763 26.7142247,18.9463976 L26.7142247,22.3845825 L32.6665718,22.3845825 L32.6665718,27.2848074 L26.7142247,27.2848074 L26.7142247,42 L21.0949358,42 L21.0949358,27.2839534 L16,27.2839534 L16,22.3837285 L21.0949358,22.3837285 L21.0949358,19.4997865 C21.0949358,15.3638874 23.9652139,12 27.9055481,12 L32.6665718,12 L32.6665718,17.2153491 L32.6665718,17.2153491 Z" id="Shape" fill="#F4F4F4"></path>
                </g>
            </g>
        </g>
    </g>
</svg>

<?xml version="1.0" encoding="UTF-8" standalone="no"?>
<svg xmlns="http://www.w3.org/2000/svg" height="53px" width="52px" version="1.1" xmlns:xlink="http://www.w3.org/1999/xlink" viewBox="0 0 52 53"><!-- Generator: Sketch 42 (36781) - http://www.bohemiancoding.com/sketch -->
 <title>facebook</title>
 <desc>Created with Sketch.</desc>
 <g id="Page-1" fill-rule="evenodd" fill="none">
  <g id="Clima" transform="translate(-725 -6338)">
   <g id="background4" transform="translate(-127 4906)">
    <g id="facebook" transform="translate(853 1433)">
     <circle id="Oval" stroke-width="2" cy="25.775" stroke="#fff" cx="25" r="25"/>
     <path id="Shape" fill="#F4F4F4" d="m32.667 17.215h-4.761c-0.563 0-1.192 0.741-1.192 1.731v3.439h5.953v4.9h-5.953v14.715h-5.619v-14.716h-5.095v-4.9h5.095v-2.884c0-4.136 2.87-7.5 6.811-7.5h4.761v5.215z"/>
    </g>
   </g>
  </g>
 </g>
</svg>
